X: 19104
T: Lady Georgina Gordon's Strathspey
C: William Marshall
R: strathspey
B: RSCDS 19-11
Z: 1997 by John Chambers <jc:trillian.mit.edu>
M: C
L: 1/8
%--------------------
K: F
|: C \
| "F"F/F/F F>F A>F A<c | "Bb"d<f "F"c>A "C7"G2 GA \
| "F"F/F/F F>F A>F A<c | "Bb"d<f "C7"c>A "F"F2- F :|
|: c \
|  "F"f>g a>g     a/g/f/d/ c>f | "Bb"d<f  "F"c>A "Gm"G2 "C7"G2 \
| "Dm"f>g a>g "Am"a/g/f/d/ c>f | "Bb"d<f "C7"c>A  "F"F2-    F :|
|: F \
| "F"C>F A,>F C>F "Bb"B>d |  "F"c>A F<A "C7"G2 G2 \
| "F"C>F A,>F C>F "Bb"B>d | "C7"c<A G>A  "F"F2- F :|
[| c \
| "F"f>g a>g a/g/f/d/ c>f | "F"c>d f<a "C7"g2 g2 \
| "Dm"f>g a>g "Am"a/g/f/d/ c>f | "Bb"d<f "C7"c>A "F"F2- F ||
y  c \
| "F"f>g a>g a/g/f/d/ c>f | "F"c>d f<a "C7"g2 g2 \
| "Bb"b/a/g/f/ a/g/f/e/ "Gm"f>c d<f | "C7"~c>B ~A>G "F"F2- F |]
%%center Book19/19111-Lady_Georgina_Gordons_Strathspey.abc

%%sep 1 1 500
%%sep 1 1 500

